static/img/logo_final.svg

<svg fill="none" height="321" viewBox="0 0 266 321" width="266" xmlns="http://www.w3.org/2000/svg"><g fill="#1a0b5c"><path d="m204 129c8.75-70-35-92.5-56-94l-65-7.8642c6.8333-6.6667 27.1-27.735825 67.5-26.135825 40.4 1.600005 69.5 40.666725 76.5 58.500025 20 49.5 8 81 3.5 94-1.11 3.207-4 5.5-7 5-4-1.5-19.5-13-21-16-2.024-4.048.656-6.746 1.5-13.5z"/><rect height="73" rx="17" width="34" x="70" y="248"/><rect height="120" rx="17" width="34" x="70" y="105"/><rect height="104" rx="17" transform="matrix(0 -1 1 0 -321 321)" width="34" y="321"/><rect height="104" rx="17" transform="matrix(0 -1 1 0 -155 295)" width="34" x="70" y="225"/><rect height="118" rx="17" transform="matrix(0 -1 1 0 -174 468)" width="34" x="147" y="321"/><rect height="165" rx="17" transform="matrix(0 -1 1 0 -35 35)" width="34" y="35"/><rect height="317" rx="17" transform="matrix(-1 0 0 -1 68 636)" width="34" x="34" y="318"/><path d="m264.572 300.072c1.019 9.454-5.981 17.775-15.428 18.854-9.957 1.138-18.856-6.174-20.167-16.109-12.409-94.036-50.232-130.607-142.4149-163.752-8.8993-3.2-13.9281-12.753-11.2366-21.819 2.6302-8.86 11.7344-14.199 20.6546-11.783 108.4439 29.379 157.9529 95.859 168.5919 194.609z"/></g></svg>

<svg width="266" height="321" viewBox="0 0 266 321" fill="none" xmlns="http://www.w3.org/2000/svg">
<path d="M204 129C212.75 59 169 36.5 148 35L83 27.1358C89.8333 20.4691 110.1 -0.600025 150.5 0.999975C190.9 2.59998 220 41.6667 227 59.5C247 109 235 140.5 230.5 153.5C229.39 156.707 226.5 159 223.5 158.5C219.5 157 204 145.5 202.5 142.5C200.476 138.452 203.156 135.754 204 129Z" fill="#1A0B5C"/>
<rect x="70" y="248" width="34" height="73" rx="17" fill="#1A0B5C"/>
<rect x="70" y="105" width="34" height="120" rx="17" fill="#1A0B5C"/>
<rect y="321" width="34" height="104" rx="17" transform="rotate(-90 0 321)" fill="#1A0B5C"/>
<rect x="70" y="225" width="34" height="104" rx="17" transform="rotate(-90 70 225)" fill="#1A0B5C"/>
<rect x="147" y="321" width="34" height="118" rx="17" transform="rotate(-90 147 321)" fill="#1A0B5C"/>
<rect y="35" width="34" height="165" rx="17" transform="rotate(-90 0 35)" fill="#1A0B5C"/>
<rect x="34" y="318" width="34" height="317" rx="17" transform="rotate(180 34 318)" fill="#1A0B5C"/>
<path d="M264.572 300.072C265.591 309.526 258.591 317.847 249.144 318.926C239.187 320.064 230.288 312.752 228.977 302.817C216.568 208.781 178.745 172.21 86.5621 139.065C77.6628 135.865 72.634 126.312 75.3255 117.246C77.9557 108.386 87.0599 103.047 95.9801 105.463C204.424 134.842 253.933 201.322 264.572 300.072Z" fill="#1A0B5C"/>
</svg>
